X:1
T:Title
%%score { ( 1 2 ) | ( 3 4 ) }
L:1/8
M:9/8
K:F
V:1 treble nm="Grand Piano"
V:2 treble 
V:3 bass 
V:4 bass 
V:1
 z3 z3[Q:1/4=100] z FG | A3 A3 c=Bc | d3 c3 A_A[CF=A] | [CFB]3 [CFA]3 .[CGc]2 [CFA] | %4
[M:3/4] [CEG]6 |[M:3/8] z FG |[M:9/8] A3 A3 c=Bc | d3 d3 fed | c3 A3 [GB]A[B,EG] |[M:3/4] [A,CF]6 | %10
[M:3/8] cBA |[M:9/8] B3 C3 c3 | [Ac]6 z3 | B3 C3 d3 |[M:15/16] [Ac]3/2-[Ac]3/2-[Ac]3/2- [Ac]3 | %15
[M:3/8] CFG |[M:9/8] [FA]3 [FA]3 z3 | [EB]6 .C3 | [EB]2- [CEB] [EB]2- [CEB] GAB |[M:3/4] c6 | %20
[M:3/8] z FA |[M:9/8] c3 c3 z3 | [Fd]6 [DFf][Fe][Fd] | [Fc]3 [FA]3 [EG]3 |[M:3/4] [CF]6 |] %25
V:2
 z3 z3 .C3 | x9 | x9 | x9 |[M:3/4] x6 |[M:3/8] [A,C]2 z |[M:9/8] x9 | x9 | x9 |[M:3/4] x6 | %10
[M:3/8] x3 |[M:9/8] x9 | z2 A, C3 cBA | x9 |[M:15/16] z3/2 z/ A,C3/2- C3 |[M:3/8] x3 | %16
[M:9/8] C2 C C2 C A_A[CF=A] | C2 C C3 z EG | .C3 .C3 z3 |[M:3/4] z2 A, A,3 |[M:3/8] C2 z | %21
[M:9/8] z2 A, z2 A, c=Bc | x9 | x9 |[M:3/4] x6 |] %25
V:3
 z3 z3 [F,A,]2 [F,B,C] | [F,CF]3 [F,CF]3 [F,F]-[F,_A,F][F,=A,F] | z3 z3 .C3 | %3
 F,3 F,3 z[K:treble] B[K:bass]F, |[M:3/4] C,6 |[M:3/8] F,2 [F,B,C] | %6
[M:9/8] [F,CF]3[K:treble] [F,CF]3 [F,F]-[F,_A,F][F,=A,F] | z3 z3 .D3 | %8
 [A,CF]3[K:bass] [F,CF]3 z FC, |[M:3/4] F,6 |[M:3/8][K:treble] AGF |[M:9/8] G3 z3 B3 | %12
 F,F,F, F,3[K:treble] AGF | G3 z3 B3 |[M:15/16][K:bass] F,F,/-F,/F,F,3/2- F,3 |[M:3/8] z A,C | %16
[M:9/8] z3 z3 .C3 | G,2 G, G,3 z2 E | z3 z3[K:treble] .C3[K:bass] |[M:3/4] F6 | %20
[M:3/8] z z[K:treble] F |[M:9/8] F3[K:bass] F3 .[F,F]3 | B,2 B, B,3 B,,[B,,C][B,,B,] | %23
 [C,A,]3 [C,C]3 [C,B,]3 |[M:3/4] [F,A,]6 |] %25
V:4
 x9 | z3 z3 .A,3 | [F,B,F]3 [F,A,F]3 [F,F]-[F,=B,F]F, | z3 z3 .E,3[K:treble][K:bass] |[M:3/4] x6 | %5
[M:3/8] x3 |[M:9/8] z3[K:treble] z3 .A,3 | [B,F]3 [B,F]3 [B,F]-[B,CF][B,F] | %8
 z3[K:bass] z3 .[C,C]3 |[M:3/4] x6 |[M:3/8][K:treble] x3 |[M:9/8] x9 | x6[K:treble] x3 | x9 | %14
[M:15/16][K:bass] x15/2 |[M:3/8] x3 |[M:9/8] F,2 F, F,2 F, [F,F]-[F,=B,F]F, | x9 | %18
 C,2 C, C,2 C,[K:treble] [B,E][A,F][K:bass][G,CE] |[M:3/4] [F,A,]2 F, F,3 |[M:3/8] x2[K:treble] x | %21
[M:9/8] [F,A,]2[K:bass] F, [F,A,]2 F, A,_A,[F,=A,F] | x9 | x9 |[M:3/4] x6 |] %25

